X: 423
T: Bir Âşık-ı Dil Hastayı...
C: Âfet Mısırlıyan
O: Turkey
F: http://compmusic.upf.edu/node/140
N: nihavent--sarki--senginsemai--bir_asik-i--afet_misirliyan
N: makam= nihavent
N: form= sarki
N: usul= senginsemai = 6/4
M: 6/4
L: 1/16
K: C _B _e  
Q: 1/4=69
%%MIDI tuningsystem comma53
G4 B4 d4 B4 A8  | d4 ^c4 d4 ^fedc d8  | \
w:  ARANAĞME  |   | 
d4 g4 ^f4 e4 d4 ^c4  | B4 A4 G4 ^F3A G8  | 
w:   |   | 
G4 B4 d4 B4 A8  | d4 ^c4 d4 ^fedc d8  | \
w:  ARANAĞME  |   | 
d4 g4 ^f4 e4 d4 ^c4  | B4 A4 G4 ^F3A G8  | 
w:   |   | 
G4 B4 A4 G4 ^F8  | ^c4 d4 e2^fg fedc d8  | \
w:  Bir  â şık_ ı  dil   |  has *  ta *  *  yı  *  *  *  dil  | 
d4 g4 ^f4 e2d2 ^c2d2 efed  | 
w:  şâd_ *  e de *  cek   | 
d8 B4 ^fed^c d8  | d4 g4 f3e feed dede dedc  | 
w:  yok   SAZ  |  Sû zân  o *  la *  *  *  na   | 
c8 B4 d4 dcBA G4  | B8 A4 G4 ^F2G2 ABAG  | \
w:  ça re  ne  im  |  dâd_ e de cek   | 
G3A B2c2 d3c cBBc d8  | 
w:  yok   SAZ  | 
d4 g4 f3e feed dede dedc  | c8 B4 d4 dcBA G4  | 
w:  Sû zân  o *  la *  *  *  na   |  ça re  ne  im  | 
B8 A4 G4 ^F2G2 ABAG  | G4 g4 g2fg a2{b}ag g8  | \
w:  dâd_ e de cek   |  yok   SAZ  | 
g4 b4 a4 g4 gfga f2_1/4e2  | 
w:  Fer yad_ e de rim   | 
d6_1/4e2 c4 g2{b}ag g8  | f3_1/4e d4 e2d2 a2g2 gf2e feed  | 
w:  hal *  bu ki  *  *  *  bir   |  dâd_ *  *  e *  de *  cek   | 
d3_1/4e f2g2 abba aggf g8  | g4 b4 a3g ag^fg a8  | 
w:  yok   SAZ  |  Fer yad_ e *  de *  *  *  rim   | 
g^fga f3e e4 d4 ^c8  | d4 g4 ^f4 e2d2 ^c2d2 efed  | \
w:  hal *  *  *  *  *  bu ki  bir   |  dâd_ *  e de *  cek   | 
d8 B4 ^fed^c d8  | 
w:  yok   SAZ  | 
d4 g4 f3e feed dede dedc  | c8 B4 d4 dcBA G4  | 
w:  Sû zân  o *  la *  *  *  na   |  ça re  ne  im  | 
B8 A4 G4 ^F2G2 ABAG  | G3A B2c2 d3c cBBc d8  | \
w:  dâd_ e de cek   |  yok   SAZ  | 
d4 g4 f3e feed dede dedc  | 
w:  Sû zân  o *  la *  *  *  na   | 
c8 B4 d4 dcBA G4  | B8 A4 G4 ^F2G2 ABAG  | \
w:  ça re  ne  im  |  dâd_ e de cek   | 
G4 edc2 B3A BAG^F G8  | 
w:  yok   SAZ KARAR  | 
|


